app/images/new_icons/profile.svg

<?xml version="1.0" encoding="UTF-8" standalone="no"?><!DOCTYPE svg PUBLIC "-//W3C//DTD SVG 1.1//EN" "http://www.w3.org/Graphics/SVG/1.1/DTD/svg11.dtd"><svg width="100%" height="100%" viewBox="0 0 24 24" version="1.1" xmlns="http://www.w3.org/2000/svg" xmlns:xlink="http://www.w3.org/1999/xlink" xml:space="preserve" xmlns:serif="http://www.serif.com/" style="fill-rule:evenodd;clip-rule:evenodd;stroke-linecap:round;stroke-linejoin:round;stroke-miterlimit:1.5;"><path d="M15.02,14c1.966,1.445 4.231,0.767 5,2c1.247,2 1,4 1,4c0,0 -3.783,2 -9.01,2c-5.227,0 -9.01,-2 -9.01,-2c0,0 -0.247,-2 1,-4c0.769,-1.233 3.034,-0.555 5,-2" style="fill:none;stroke:#fff;stroke-width:1px;"/><path d="M12,12.217c4.525,0 6.018,-10.182 0.01,-10.217c-5.987,0 -4.515,10.217 -0.01,10.217Z" style="fill:none;stroke:#fff;stroke-width:1px;"/></svg>

<?xml version="1.0" encoding="UTF-8" standalone="no"?>
<!DOCTYPE svg PUBLIC "-//W3C//DTD SVG 1.1//EN" "http://www.w3.org/Graphics/SVG/1.1/DTD/svg11.dtd">
<svg width="100%" height="100%" viewBox="0 0 24 24" version="1.1" xmlns="http://www.w3.org/2000/svg" xmlns:xlink="http://www.w3.org/1999/xlink" xml:space="preserve" xmlns:serif="http://www.serif.com/" style="fill-rule:evenodd;clip-rule:evenodd;stroke-linecap:round;stroke-linejoin:round;stroke-miterlimit:1.5;">
    <path d="M15.02,14C16.986,15.445 19.251,14.767 20.02,16C21.267,18 21.02,20 21.02,20C21.02,20 17.237,22 12.01,22C6.783,22 3,20 3,20C3,20 2.753,18 4,16C4.769,14.767 7.034,15.445 9,14" style="fill:none;stroke:white;stroke-width:1px;"/>
    <path d="M12,12.217C16.525,12.217 18.018,2.035 12.01,2C6.023,2 7.495,12.217 12,12.217Z" style="fill:none;stroke:white;stroke-width:1px;"/>
</svg>
